X:1
T:Title
%%score { ( 1 3 ) | ( 2 4 ) }
L:1/8
M:4/4
K:G
V:1 treble nm="Grand Piano"
V:3 treble 
V:2 bass 
V:4 bass 
V:1
 z4 z2[Q:1/4=108] [B,D]2 | [B,D]2 [CE]2 [B,G]2 A2 | B2 B2 A4 | G G2 G B2 G2 | [FA]4 z2 [CD]2 | %5
 [B,D]2 [CE]2 [B,G]2 A2 | z4 A4 | G G2 G [GB]2 [FA]2 | G6 z2 | G G2 G E2 G2 | [^DB]6 z2 | %11
 B B2 B [E^c]2 [Gc]2 | [Fd]4 z2 d2 | e2 d2 c2 B2 | [Fd]2 [Ac]2 [GB]2 [FA]2 | G G2 G [GB]2 A2 | %16
[M:3/4] G4 z2 |] %17
V:2
 z4 z2 [G,,G,]2 | [G,,G,]2 [G,,G,]2 [G,,G,]2 [D,F,D]2 | [G,D]2 [G,D]2 [D,F,D]4 | %3
 [G,B,D] [G,B,D]2 [G,B,D] [G,DG]2 [G,B,D]2 | [D,D]4 z2 [D,F,]2 | %5
 [G,,G,]2 [G,,G,]2 [G,,G,]2 [D,F,D]2 | [G,D]2 [G,D]2 D2 z2 | %7
 [E,B,] [E,B,E]2 [E,B,E] [D,D]2 [D,C]2 | [G,B,]6 z2 | G, G,2 G, E,2 G,2 | [B,,F,]6 z2 | %11
 [E,G,E] [E,G,E]2 [E,G,E] [A,,A,]2 [A,,A,]2 | [D,A,]4 z2[K:treble] [G,B,G]2 | %13
 [G,CG]2 [G,B,G]2 [G,EG]2 [G,DG]2 | [D,D]2 [D,D]2 [D,D]2 [D,C]2 | %15
 [E,B,E] [E,B,E]2 [E,B,E] [D,D]2 [D,CD]2 |[M:3/4] [G,B,D]4 z2 |] %17
V:3
 x8 | x8 | x8 | x8 | x8 | x8 | B2 B2 z2 C2 | x8 | x8 | x8 | x8 | x8 | x8 | x8 | x8 | x8 | %16
[M:3/4] x6 |] %17
V:4
 x8 | x8 | x8 | x8 | x8 | x8 | z4 [D,F,]4 | x8 | x8 | x8 | x8 | x8 | x6[K:treble] x2 | x8 | x8 | %15
 x8 |[M:3/4] x6 |] %17

